svg/battery_large_showing_terminals.svg

<svg width="24" height="24" viewBox="0 0 24 24" xmlns="http://www.w3.org/2000/svg">
<path fill-rule="evenodd" clip-rule="evenodd" d="M17.9455 4.273C18 4.37996 18 4.51997 18 4.8V6H20C21.11 6 21.99 6.89 21.99 8L22 18C22 19.11 21.11 20 20 20H4C2.89 20 2 19.11 2 18V8C2 6.89 2.89 6 4 6H6V4.8C6 4.51997 6 4.37996 6.0545 4.273C6.10243 4.17892 6.17892 4.10243 6.273 4.0545C6.37996 4 6.51997 4 6.8 4H9.2C9.48003 4 9.62004 4 9.727 4.0545C9.82108 4.10243 9.89757 4.17892 9.9455 4.273C10 4.37996 10 4.51997 10 4.8V6H14V4.8C14 4.51997 14 4.37996 14.0545 4.273C14.1024 4.17892 14.1789 4.10243 14.273 4.0545C14.38 4 14.52 4 14.8 4H17.2C17.48 4 17.62 4 17.727 4.0545C17.8211 4.10243 17.8976 4.17892 17.9455 4.273ZM14 12H18V14H14V12ZM7 12H5.5V14H7V15.5H9V14H10.5V12H9V10.5H7V12Z" />
</svg>

<svg width="24" height="24" viewBox="0 0 24 24" xmlns="http://www.w3.org/2000/svg"><path fill-rule="evenodd" clip-rule="evenodd" d="M17.945 4.273C18 4.38 18 4.52 18 4.8V6h2c1.11 0 1.99.89 1.99 2L22 18c0 1.11-.89 2-2 2H4c-1.11 0-2-.89-2-2V8c0-1.11.89-2 2-2h2V4.8c0-.28 0-.42.054-.527a.5.5 0 0 1 .219-.218C6.38 4 6.52 4 6.8 4h2.4c.28 0 .42 0 .527.054a.5.5 0 0 1 .218.219C10 4.38 10 4.52 10 4.8V6h4V4.8c0-.28 0-.42.055-.527a.5.5 0 0 1 .218-.218C14.38 4 14.52 4 14.8 4h2.4c.28 0 .42 0 .527.054a.5.5 0 0 1 .218.219zM14 12h4v2h-4v-2zm-7 0H5.5v2H7v1.5h2V14h1.5v-2H9v-1.5H7V12z"/></svg>
